svg/vscode-codicons/arrow-circle-down.svg

<svg width="16" height="16" viewBox="0 0 16 16" xmlns="http://www.w3.org/2000/svg" fill="currentColor"><path d="M5.36891 8.08074L7.50833 10.2202V4.46802H8.50833V10.1473L10.5749 8.08074L11.282 8.78784L8.32545 11.7444H7.61835L4.6618 8.78784L5.36891 8.08074Z"/><path d="M14 8C14 4.68629 11.3137 2 8 2C4.68629 2 2 4.68629 2 8C2 11.3137 4.68629 14 8 14C11.3137 14 14 11.3137 14 8ZM13 8C13 10.7614 10.7614 13 8 13C5.23858 13 3 10.7614 3 8C3 5.23858 5.23858 3 8 3C10.7614 3 13 5.23858 13 8Z"/></svg>

<svg xmlns="http://www.w3.org/2000/svg" width="16" height="16" viewBox="0 0 16 16"><path d="m5.369 8.08 2.14 2.14V4.468h1v5.68l2.066-2.067.707.707-2.957 2.956h-.707L4.662 8.788l.707-.707Z"/><path d="M14 8A6 6 0 1 0 2 8a6 6 0 0 0 12 0Zm-1 0A5 5 0 1 1 3 8a5 5 0 0 1 10 0Z"/></svg>
